packages/ui-icons/svg/Line/paint.svg

<svg viewBox="0 0 1920 1920" version="1.1" xmlns="http://www.w3.org/2000/svg">
    <path d="M517.257332,1127.34303 C589.989778,1127.34303 666.128124,1163.92899 738.530966,1234.79369 C825.985689,1345.21077 853.452625,1438.92795 820.162699,1513.08868 C747.430253,1675.36333 407.499457,1747.98591 201.49744,1772.26668 C236.105779,1689.64614 276.646976,1555.38776 276.646976,1377.62175 C276.646976,1280.49867 343.11696,1182.16704 434.526922,1143.93306 C461.224784,1132.83642 489.021323,1127.34303 517.257332,1127.34303 Z M746.661179,960.234197 C800.716108,989.129413 853.123022,1025.6055 901.794432,1073.72758 L915.637767,1089.32879 C943.654042,1124.70621 966.286797,1159.31455 986.06299,1193.48341 C956.508567,1219.74181 926.185071,1246.21993 895.312235,1273.02766 C876.414983,1237.54038 852.24408,1201.06429 822.469921,1163.70926 L818.185079,1158.87508 C769.843273,1111.19248 718.754772,1075.48546 666.457727,1051.86389 C692.825985,1021.21079 719.523847,990.667562 746.661179,960.234197 Z M1793.15143,157.100998 C1800.95204,164.901608 1811.27961,178.854811 1810.07106,209.288176 C1804.02833,364.970767 1525.73334,703.693018 1069.56247,1118.55361 C1049.56655,1086.2525 1027.593,1053.73165 1001.77408,1021.10093 L979.25119,995.831346 C930.030442,947.159936 877.843264,906.948342 823.238996,874.757093 C1173.82696,488.901581 1551.44239,140.401101 1733.49324,132.929113 C1764.47595,132.820227 1777.98968,141.93925 1793.15143,157.100998 Z M1919.82894,213.573018 C1921.91642,159.95756 1904.99679,113.593372 1863.68652,72.283101 C1829.40778,38.0043653 1781.72518,21.084733 1729.09853,23.1722201 C1424.54515,35.587275 816.866667,706.549579 549.558449,1019.34304 C495.94299,1013.95952 442.876871,1021.43053 392.117974,1042.74487 C259.507608,1098.00835 166.779233,1235.7825 166.779233,1377.62175 C166.779233,1646.13851 62.8443488,1803.35925 61.8555391,1804.8974 L0,1896.74684 L110.307214,1890.59424 C179.523891,1886.85874 791.597086,1845.21886 920.471948,1558.13445 C944.862587,1503.53018 949.696767,1444.97068 936.402771,1382.8954 C1310.72217,1061.09278 1908.51256,503.184388 1919.82894,213.573018" stroke="none" stroke-width="1" fill-rule="evenodd"/>
</svg>

<svg viewBox="0 0 1920 1920" version="1.1" xmlns="http://www.w3.org/2000/svg">
    <path d="M1069.562 1118.554c-19.995-32.302-41.969-64.822-67.788-97.453l-22.523-25.27c-49.22-48.671-101.408-88.883-156.012-121.074 350.588-385.855 728.203-734.356 910.254-741.828 30.983-.109 44.497 9.01 59.658 24.172 7.801 7.8 18.129 21.754 16.92 52.187-6.043 155.683-284.338 494.405-740.509 909.266zm-247.092 45.155l-4.285-4.834c-48.342-47.683-99.43-83.39-151.727-107.011 26.368-30.653 53.066-61.196 80.203-91.63 54.055 28.895 106.462 65.371 155.133 113.494l13.844 15.6c28.016 35.378 50.649 69.987 70.425 104.155-29.554 26.259-59.878 52.737-90.75 79.545-18.898-35.488-43.069-71.964-72.843-109.319zm-2.307 349.38c-72.733 162.274-412.664 234.897-618.666 259.178 34.609-82.62 75.15-216.88 75.15-394.645 0-97.123 66.47-195.455 157.88-233.689 26.698-11.097 54.494-16.59 82.73-16.59 72.733 0 148.871 36.586 221.274 107.45 87.455 110.418 114.922 204.135 81.632 278.296zM1919.829 213.573c2.087-53.615-14.832-99.98-56.142-141.29-34.28-34.279-81.962-51.198-134.588-49.11-304.554 12.414-912.232 683.377-1179.54 996.17-53.616-5.383-106.682 2.088-157.441 23.402-132.61 55.263-225.339 193.038-225.339 334.877 0 268.517-103.935 425.737-104.923 427.275L0 1896.747l110.307-6.153c69.217-3.735 681.29-45.375 810.165-332.46 24.39-54.604 29.225-113.163 15.93-175.239 374.32-321.802 972.11-879.71 983.427-1169.322" stroke="none" stroke-width="1" fill-rule="evenodd"/>
</svg>
